X:1066
T:The Charity Boy.
M:6/8
L:1/8
Q:3/8=104
I: :: ::
Z:Jack Campin * www.campin.me.uk * 2009
K:C
gec gec|a2b g3 |fdc BAG|ced c3|gec  gec|a2b g3 |fdc BAG|c3  c3:|
dBf dBf|egf edc|dBf dBf|eag g3|abc' gec|dec BAG|F2a gec|fdB c3:|
<end>
<start>
